ui/StatusQ/src/assets/img/icons/destroy.svg

<svg fill="none" height="20" viewBox="0 0 20 20" width="20" xmlns="http://www.w3.org/2000/svg" xmlns:xlink="http://www.w3.org/1999/xlink"><clipPath id="a"><path d="m0 0h20v20h-20z"/></clipPath><g clip-path="url(#a)"><path clip-rule="evenodd" d="m10.0446 1.0013c.3184.01848.5923.23153.6887.53556l1.0939 3.45206 3.1664-3.17666c.2422-.243.6161-.2962.9165-.13042s.4547.51047.3782.84494l-.991 4.33399h3.9334c.3448 0 .6474.22938.7406.56129s-.0458.68529-.3402.86474l-4.0385 2.462 3.551 3.355c.2544.2403.3145.6221.1462.929s-.5225.4615-.862.3761l-4.0196-1.0102.0531 2.5928c.0062.2982-.1607.573-.428.7052-.2674.1323-.5871.098-.8203-.0878l-3.0822-2.4557-3.25649 3.5464c-.22693.2472-.58787.3187-.89191.1768s-.48103-.4645-.43737-.7971l.48664-3.7078-3.94068.4692c-.33143.0394-.65049-.1393-.78987-.4426-.13939-.3033-.0673-.6618.17847-.8877l3.00681-2.7629-4.11171-2.4572c-.2970082-.1775-.4389581-.53145-.3468912-.86498.0920672-.33353.3954912-.56455.7414942-.56455h4.454217l-.87259-2.49312c-.10605-.30298-.01279-.63997.23393-.84533s.59504-.23592.87375-.07666l2.34141 1.33795 1.49852-3.33004c.13088-.29084.42765-.470754.74607-.45227zm-.16954 2.92007-1.01973 2.26606c-.089.19778-.25735.34879-.46359.41586-.20625.06707-.43122.04396-.61952-.06365l-1.28893-.73653.55047 1.57278c.08235.23529.04557.4959-.09868.69921-.14424.20332-.37808.32413-.62736.32413h-2.75176l2.60483 1.55667c.20843.1246.34582.3402.3706.5818.02478.2415-.06594.4806-.24474.6449l-2.01199 1.8488 2.5575-.3045c.23575-.028.47125.0543.63812.2232s.2464.4054.2155.6408l-.29869 2.2757 2.09555-2.2821c.2732-.2975.72996-.3331 1.04596-.0814l2.361 1.8811-.0402-1.9614c-.0049-.2397.1022-.4681.2898-.6175s.4342-.2027.6667-.1443l2.1397.5378-2.1416-2.0235c-.1743-.1646-.2618-.4011-.2367-.6396.025-.2384.1599-.4515.3646-.5763l2.5592-1.56017h-2.1588c-.2342 0-.4556-.10665-.6015-.28975-.146-.18309-.2006-.42269-.1484-.65095l.6087-2.66194-2.1694 2.17639c-.1898.19042-.4652.26792-.7265.20442-.2612-.06351-.4704-.2588-.5516-.51509z" fill="#09101c" fill-rule="evenodd"/></g></svg>

<svg width="20" height="20" viewBox="0 0 20 20" fill="none" xmlns="http://www.w3.org/2000/svg">
<g clip-path="url(#clip0_12501_302412)">
<path fill-rule="evenodd" clip-rule="evenodd" d="M10.0446 1.0013C10.363 1.01978 10.6369 1.23283 10.7333 1.53686L11.8272 4.98892L14.9936 1.81226C15.2358 1.56926 15.6097 1.51606 15.9101 1.68184C16.2105 1.84762 16.3648 2.19231 16.2883 2.52678L15.2973 6.86077H19.2307C19.5755 6.86077 19.8781 7.09015 19.9713 7.42206C20.0645 7.75397 19.9255 8.10735 19.6311 8.2868L15.5926 10.7488L19.1436 14.1038C19.398 14.3441 19.4581 14.7259 19.2898 15.0328C19.1215 15.3397 18.7673 15.4943 18.4278 15.4089L14.4082 14.3987L14.4613 16.9915C14.4675 17.2897 14.3006 17.5645 14.0333 17.6967C13.7659 17.829 13.4462 17.7947 13.213 17.6089L10.1308 15.1532L6.87431 18.6996C6.64738 18.9468 6.28644 19.0183 5.9824 18.8764C5.67836 18.7345 5.50137 18.4119 5.54503 18.0793L6.03167 14.3715L2.09099 14.8407C1.75956 14.8801 1.4405 14.7014 1.30112 14.3981C1.16173 14.0948 1.23382 13.7363 1.47959 13.5104L4.4864 10.7475L0.37469 8.2903C0.0776818 8.1128 -0.0642681 7.75885 0.0277988 7.42532C0.119866 7.09179 0.42329 6.86077 0.769293 6.86077H5.22351L4.35092 4.36765C4.24487 4.06467 4.33813 3.72768 4.58485 3.52232C4.83157 3.31696 5.17989 3.2864 5.4586 3.44566L7.80001 4.78361L9.29853 1.45357C9.42941 1.16273 9.72618 0.982816 10.0446 1.0013ZM9.87506 3.92137L8.85533 6.18743C8.76633 6.38521 8.59798 6.53622 8.39174 6.60329C8.18549 6.67036 7.96052 6.64725 7.77222 6.53964L6.48329 5.80311L7.03376 7.37589C7.11611 7.61118 7.07933 7.87179 6.93508 8.0751C6.79084 8.27842 6.557 8.39923 6.30772 8.39923H3.55596L6.16079 9.9559C6.36922 10.0805 6.50661 10.2961 6.53139 10.5377C6.55617 10.7792 6.46545 11.0183 6.28665 11.1826L4.27466 13.0314L6.83216 12.7269C7.06791 12.6989 7.30341 12.7812 7.47028 12.9501C7.63715 13.119 7.71668 13.3555 7.68578 13.5909L7.38709 15.8666L9.48264 13.5845C9.75584 13.287 10.2126 13.2514 10.5286 13.5031L12.8896 15.3842L12.8494 13.4228C12.8445 13.1831 12.9516 12.9547 13.1392 12.8053C13.3268 12.6559 13.5734 12.6026 13.8059 12.661L15.9456 13.1988L13.804 11.1753C13.6297 11.0107 13.5422 10.7742 13.5673 10.5357C13.5923 10.2973 13.7272 10.0842 13.9319 9.9594L16.4911 8.39923H14.3323C14.0981 8.39923 13.8767 8.29258 13.7308 8.10948C13.5848 7.92639 13.5302 7.68679 13.5824 7.45853L14.1911 4.79659L12.0217 6.97298C11.8319 7.1634 11.5565 7.2409 11.2952 7.1774C11.034 7.11389 10.8248 6.9186 10.7436 6.66231L9.87506 3.92137Z" fill="#09101C"/>
</g>
<defs>
<clipPath id="clip0_12501_302412">
<rect width="20" height="20" fill="white"/>
</clipPath>
</defs>
</svg>
